X:250
T:All Creatures of Our God and King
%%stretchlast false
M:6/4
L:1/4
K:C clef=C1
"^I"[CEGc]2 [CEc] "^ii7³"[CFcd] "^I"[CGce] [CEc]/ "^I7³"[B,Ec]/ | "^vi"[A,Ace] "^ii7"[DAcf] "^i"[G,Gcg]2 "^V"[GBg] "^V7³"[FGBg] | "^I¹"[EGc] "^IV"[FAc] "^I¹"[EGc] "^vii°¹"[DFBd] "^I"[CGce] "^i"[B,Gc] | "^vi"[A,Ace] "^ii7"[DAcf] "^i"[G,Gcg]2 "^V"[GBg] "^V7³"[FGBg] | "^I¹"[Ecgc'] "^Imaj7¹"[Ecgb] "^IV"[Fcga] [Fcfa] "^I"[Cceg]2 | "^vi"[A,Ecc'] "^V¹"[B,Gdb] "^vi7¹"[CGea] "^V/V"[D^Fda] "^V"[G,GBg]2 | "^I¹"[Ecgc'] "^ii7"[Dcfc'] "^I"[Ccec'] "^Imaj7³"[B,ceg] "^vi7"[A,ceg] "^V7¹"[B,Gdf] | "^I"[CGce] "^IV¹"[A,Fcf] "^i"[G,Dcg]2 "^V"[GBg] "^V7³"[FGBg] | "^I¹"[EGcc'] "^ii"[FGdc'] "^I¹"[EGcc'] "^V²"[DGBg] "^i"[CGcg] "^IV¹"[Acf] | "^Imaj7²"[GBce] "^IV"[FAcf] "^I¹"[EGcg] "^V²"[DGBg] "^I"[CGeg] "^V¹"[B,Gdg] | "^IV¹"[A,Acf] "^vi7³"[G,Ace] "^ii7¹"[F,Acd] "^V7³"[F,GBd] "^I¹"[E,Gc]2 | "^ii7"[D,Acf] "^I¹"[E,Gce] "^ii7¹"[F,Acd] "^V7"[G,FBd] "^vi"[A,EAc]2 | [A,Eec'] "^V¹"[B,Gdb] "^vi7¹"[CGea] "^V/V"[D^Fda] "^V"[G,GBg]2 | "^vi7"[A,Ggc'] "^V¹"[B,Ggb] "^vi7¹"[CEga] "^ii"[DFfa] "^V7¹"[B,Dfg] "^♭ii°"[^CEeg] | "^ii"[DFAf] "^I¹"[EGce] "^ii7¹"[FAcd]2 "^V"[GBd]2 | "^V7"[G,FBd]2 "^I"[CEGc]4 |]
